icons/archlinux/archlinux-plain.svg

<?xml version="1.0" encoding="UTF-8" standalone="no"?>
<svg
   width="128px"
   height="128px"
   viewBox="0 0 128 128"
   version="1.1"
   id="svg230"
   sodipodi:docname="archlinux-plain.svg"
   inkscape:version="1.1.2 (b8e25be8, 2022-02-05)"
   xmlns:inkscape="http://www.inkscape.org/namespaces/inkscape"
   xmlns:sodipodi="http://sodipodi.sourceforge.net/DTD/sodipodi-0.dtd"
   xmlns="http://www.w3.org/2000/svg"
   xmlns:svg="http://www.w3.org/2000/svg">
  <defs
     id="defs234" />
  <sodipodi:namedview
     id="namedview232"
     pagecolor="#ffffff"
     bordercolor="#666666"
     borderopacity="1.0"
     inkscape:pageshadow="2"
     inkscape:pageopacity="0.0"
     inkscape:pagecheckerboard="0"
     showgrid="false"
     inkscape:zoom="6.8203125"
     inkscape:cx="64"
     inkscape:cy="65.75945"
     inkscape:window-width="1296"
     inkscape:window-height="1081"
     inkscape:window-x="340"
     inkscape:window-y="119"
     inkscape:window-maximized="0"
     inkscape:current-layer="svg230" />
  <g
     id="surface1"
     transform="translate(0,-20.973653)">
    <path
       style="fill:#000000;fill-opacity:1;fill-rule:evenodd;stroke:none"
       d="m 61.113281,25.859375 c -5.292969,12.902344 -8.484375,21.34375 -14.375,33.863281 3.613281,3.804688 8.046875,8.242188 15.246094,13.25 C 54.242188,69.804688 48.964844,66.625 45.015625,63.324219 37.476562,78.96875 25.664062,101.25781 1.691406,144.09375 20.535156,133.27734 35.140625,126.60938 48.75,124.0625 c -0.585938,-2.5 -0.917969,-5.20312 -0.894531,-8.02344 l 0.02344,-0.60156 c 0.296875,-12.00391 6.578125,-21.238281 14.015625,-20.609375 7.4375,0.625 13.222657,10.871095 12.921875,22.875005 -0.05469,2.26171 -0.3125,4.43359 -0.761718,6.44921 13.464843,2.6211 27.914059,9.27344 46.499999,19.94141 -3.66406,-6.70703 -6.9336,-12.75781 -10.0586,-18.51953 -4.92187,-3.79297 -10.05468,-8.72656 -20.523431,-14.07422 7.195313,1.86328 12.347651,4.00781 16.363281,6.40625 C 74.578125,59.09375 72.003906,51.28125 61.113281,25.859375 Z m 0,0"
       id="path223" />
    <path
       style="fill:#000000;fill-opacity:1;fill-rule:nonzero;stroke:none"
       d="m 121.14063,133.54297 v -3.24219 h -1.21485 v -0.43359 h 2.92969 v 0.43359 h -1.22266 v 3.24219 h -0.49218"
       id="path225" />
    <path
       style="fill:#000000;fill-opacity:1;fill-rule:nonzero;stroke:none"
       d="m 123.36328,133.54297 v -3.67578 h 0.73438 l 0.875,2.60156 c 0.082,0.24219 0.14062,0.42578 0.17578,0.54297 0.043,-0.13281 0.10937,-0.32813 0.19922,-0.58594 l 0.88281,-2.55859 h 0.66016 v 3.67578 h -0.47266 v -3.07813 l -1.07422,3.07813 h -0.44141 l -1.0664,-3.12891 v 3.12891 h -0.47266"
       id="path227" />
  </g>
</svg>

<?xml version="1.0" encoding="UTF-8"?>
<svg xmlns="http://www.w3.org/2000/svg" xmlns:xlink="http://www.w3.org/1999/xlink" width="128px" height="128px" viewBox="0 0 128 180" version="1.1">
<g id="surface1">
<path style=" stroke:none;fill-rule:evenodd;fill:rgb(0%,0%,0%);fill-opacity:1;" d="M 61.113281 25.859375 C 55.820312 38.761719 52.628906 47.203125 46.738281 59.722656 C 50.351562 63.527344 54.785156 67.964844 61.984375 72.972656 C 54.242188 69.804688 48.964844 66.625 45.015625 63.324219 C 37.476562 78.96875 25.664062 101.257812 1.691406 144.09375 C 20.535156 133.277344 35.140625 126.609375 48.75 124.0625 C 48.164062 121.5625 47.832031 118.859375 47.855469 116.039062 L 47.878906 115.4375 C 48.175781 103.433594 54.457031 94.199219 61.894531 94.828125 C 69.332031 95.453125 75.117188 105.699219 74.816406 117.703125 C 74.761719 119.964844 74.503906 122.136719 74.054688 124.152344 C 87.519531 126.773438 101.96875 133.425781 120.554688 144.09375 C 116.890625 137.386719 113.621094 131.335938 110.496094 125.574219 C 105.574219 121.78125 100.441406 116.847656 89.972656 111.5 C 97.167969 113.363281 102.320312 115.507812 106.335938 117.90625 C 74.578125 59.09375 72.003906 51.28125 61.113281 25.859375 Z M 61.113281 25.859375 "/>
<path style=" stroke:none;fill-rule:nonzero;fill:rgb(0%,0%,0%);fill-opacity:1;" d="M 121.140625 133.542969 L 121.140625 130.300781 L 119.925781 130.300781 L 119.925781 129.867188 L 122.855469 129.867188 L 122.855469 130.300781 L 121.632812 130.300781 L 121.632812 133.542969 L 121.140625 133.542969 "/>
<path style=" stroke:none;fill-rule:nonzero;fill:rgb(0%,0%,0%);fill-opacity:1;" d="M 123.363281 133.542969 L 123.363281 129.867188 L 124.097656 129.867188 L 124.972656 132.46875 C 125.054688 132.710938 125.113281 132.894531 125.148438 133.011719 C 125.191406 132.878906 125.257812 132.683594 125.347656 132.425781 L 126.230469 129.867188 L 126.890625 129.867188 L 126.890625 133.542969 L 126.417969 133.542969 L 126.417969 130.464844 L 125.34375 133.542969 L 124.902344 133.542969 L 123.835938 130.414062 L 123.835938 133.542969 L 123.363281 133.542969 "/>
</g>
</svg>
